X:1
T:Title
%%score 1 ( 2 3 )
L:1/8
Q:1/4=95
M:6/8
K:F
V:1 treble nm="Grand Piano, Soprano"
V:2 bass nm="Choir Pad, Chihuahua, T. E. Perkins"
V:3 bass 
V:1
 F2 F [EG]>[FA][EB] | [Fc]2 [Ec] [Fc]3 | [Fd]2 [Fc] [FA]>[EG]F | [EG]2 [FA] [EG]3 | %4
w: By~Theodore~Edson~Perkins,~1875 * * * *||||
 F2 F [EG]>[FA][EB] | [Fc]2 [Ec] [Fc]3 | [FG]>A[F=B] [Ec]2 [Gc] | [Fd]3 [Ec]3 | [FA]2 [GB] [Ac]3 | %9
w: |||||
 [FB]2 [Fc] [Fd]3 | [Fc]>A[Fd] [Fc]>AF | [EG]2 [FA] [EG]3 | F2 F [EG]>[FA][EB] | [Fc]2 [Ec] [Fc]3 | %14
w: |||||
 [Fc]2 [Fd] [Fc]>AF | [EG]3 F3- | F6 |] %17
w: |||
V:2
 [F,A,]2 [A,C] [B,C]>A,[G,C] | [F,A,]2 [G,B,] [A,C]3 | B,2 [A,C] [F,C]>[C,B,][D,A,] | %3
 [C,C]3 C2 B, | [F,A,]2 [A,C] [B,C]>A,[G,C] | [F,A,]2 [G,B,] [A,C]3 | [G,=B,]>C[G,D] [A,C]2 [E,C] | %7
 [F,A,]2 [G,=B,] [C,C]3 | [F,C]2 [F,C] C2- [_E,C] | [D,B,]2 [C,A,] [B,,B,]3 | %10
 [F,A,]>C[F,B,] [F,A,]2 [D,=B,] | [C,C]3 [C,C]3 | [F,A,]2 [A,C] [B,C]>A,[G,C] | %13
 [F,A,]2 [G,B,] [A,C]3 | [F,A,]2 [B,,B,] [C,A,]2 [C,A,] | [C,B,]3 [F,A,]3- | [F,A,]6 |] %17
V:3
 x6 | x6 | x6 | z3 C,3 | x6 | x6 | x6 | x6 | z3 .F,3 | x6 | x6 | x6 | x6 | x6 | x6 | x6 | x6 |] %17

